videopac/_inc/art.svg

<svg preserveAspectRatio="none" xmlns="http://www.w3.org/2000/svg"><g fill="#1e1e1e"><path d="m481.572 154.263c-3.825 0-6.942 3.117-6.942 6.942v243.601c0 3.824 3.117 6.923 6.942 6.923h184.35c3.824 0 6.942-3.099 6.942-6.923v-.615-242.986c0-3.823-3.115-6.942-6.942-6.942zm0 1.231h184.35c3.159 0 5.711 2.552 5.711 5.711v243.601c0 3.158-2.553 5.693-5.711 5.693h-184.35c-3.158.005-5.711-2.531-5.711-5.693v-243.601c0-3.159 2.553-5.711 5.711-5.711z" transform="matrix(.965926 -.258819 .258819 .965926 -53.694794 158.139498)"/><path d="m488.939 189.56c-6.399 0-11.597 5.199-11.597 11.596v40.309.616h.616 52.866.615v-.616-51.289-.616h-.615zm0 1.231h41.269v50.059h-51.635v-39.694c0-5.732 4.633-10.365 10.366-10.365z" transform="matrix(.965926 -.258819 .258819 .965926 -38.671766 137.899754)"/><path d="m552.114 173.92v.615 52.751h-54.405-.616v.617 151.289c0 6.398 5.199 11.595 11.596 11.595h129.776c6.399 0 11.597-5.197 11.597-11.595v-193.679c0-6.398-5.198-11.596-11.597-11.596h-85.731-.615zm1.231 1.231h85.116c5.734 0 10.366 4.632 10.366 10.365v193.679c0 5.733-4.632 10.367-10.366 10.367h-129.776c-5.732 0-10.365-4.634-10.365-10.367v-150.674h54.405.616v-.616-52.751z" transform="matrix(.965926 -.258819 .258819 .965926 -53.533891 158.073687)"/><path d="m512.087 230.157c-4.193.002-7.596 3.405-7.596 7.597v91.024c.001 4.192 3.403 7.596 7.596 7.596h123.461c4.192 0 7.596-3.403 7.597-7.596v-91.024c-.001-4.192-3.405-7.595-7.597-7.597zm0 1.232 123.461-.001c3.521.001 6.356 2.847 6.366 6.366v.02 91.004c0 3.528-2.839 6.366-6.366 6.366h-123.461c-3.528 0-6.364-2.838-6.365-6.366v-91.004-.02c.01-3.519 2.843-6.365 6.365-6.365zm0 1.441c-2.72.006-4.937 2.203-4.942 4.924v91.024c.006 2.72 2.222 4.937 4.942 4.942h123.461c2.72-.005 4.938-2.222 4.944-4.942l-.001-91.024c-.005-2.721-2.222-4.918-4.943-4.924zm0 1.231h123.461c2.051.004 3.698 1.644 3.713 3.693v.02 91.004c-.006 2.058-1.655 3.709-3.713 3.713h-123.461c-2.057-.006-3.707-1.655-3.711-3.713v-91.004c0-.008 0-.014 0-.02.013-2.049 1.659-3.689 3.711-3.693z" transform="matrix(.965926 -.258819 .258819 .965926 -53.762077 158.166766)"/><path d="m573.264 245.349c-1.863 0-3.719.718-5.136 2.135l-3.327 3.308c-2.149 2.248-3.348 2.923-7.173 2.923h-4.577c-4.008 0-7.269 3.261-7.269 7.269v4.327c0 1.896-.096 3.055-.442 4.02-.345.963-.962 1.811-2.173 3.095l-3.631 3.631c-2.835 2.834-2.835 7.455 0 10.289l3.48 3.481h.02v.019c1.115.986 1.765 1.755 2.173 2.883.408 1.131.577 2.683.577 5.193v3.5c0 4.01 3.262 7.269 7.27 7.269h4.326c4.056 0 5.369.914 7.404 2.885l3.347 3.346c2.834 2.835 7.434 2.835 10.27 0l3.153-3.134c1.303-1.311 2.103-2.069 3.039-2.501.935-.434 2.098-.596 4.231-.596h4.655c4.009 0 7.269-3.261 7.269-7.269v-4.25c0-2.444.309-3.919.903-5.076.594-1.158 1.515-2.051 2.885-3.289l.019-.018 2.442-2.443c2.835-2.834 2.835-7.455 0-10.289l-2.654-2.655-.019-.019c-1.306-1.131-2.175-1.95-2.73-3.077-.558-1.125-.847-2.621-.847-5.154v-4.172c0-4.009-3.262-7.268-7.269-7.268h-4.654c-2.11 0-3.368-.279-4.404-.809-1.037-.53-1.892-1.348-3.115-2.538l-2.904-2.885c-1.418-1.416-3.273-2.134-5.135-2.134zm0 1.231c1.543 0 3.086.587 4.268 1.77l2.904 2.884v.019c1.223 1.19 2.176 2.112 3.423 2.751 1.248.637 2.744.941 4.962.941h4.654c3.343 0 6.039 2.696 6.039 6.04v4.173c0 2.626.306 4.324.982 5.692.668 1.352 1.673 2.308 2.98 3.442.012.01.027.01.039.019l2.616 2.616c2.364 2.363 2.364 6.192 0 8.556l-2.424 2.404-.019.02c-1.372 1.24-2.428 2.255-3.135 3.634-.711 1.387-1.039 3.088-1.039 5.634v4.25c0 3.344-2.694 6.04-6.038 6.04h-4.655c-2.194 0-3.566.162-4.75.71-1.183.549-2.076 1.434-3.384 2.752l-3.145 3.126c-2.365 2.365-6.174 2.365-8.539 0l-3.347-3.346h-.019v-.02c-2.107-2.039-3.985-3.23-8.25-3.23h-4.327c-3.343 0-6.038-2.695-6.038-6.04v-3.499c0-2.563-.163-4.253-.654-5.616-.489-1.354-1.312-2.329-2.481-3.366l-.019-.019-3.462-3.442c-2.364-2.364-2.364-6.194 0-8.557l3.655-3.636.019-.018c1.252-1.327 2.014-2.325 2.442-3.519.429-1.195.501-2.513.501-4.444v-4.326c0-3.344 2.694-6.038 6.038-6.038h4.577c3.996 0 5.814-.942 8.058-3.289l3.307-3.308c1.182-1.183 2.725-1.769 4.27-1.769z" transform="matrix(.965926 -.258819 .258819 .965926 -53.24555 157.954074)"/><path d="m573.268 249.235c-1.675 0-3.343.629-4.617 1.903l-2.961 2.962c-1.909 1.995-2.951 2.577-6.346 2.577h-4.058c-3.603 0-6.539 2.934-6.539 6.539v3.846c0 1.686-.081 2.712-.385 3.558-.303.845-.847 1.591-1.922 2.731l-3.231 3.231c-2.548 2.548-2.548 6.702 0 9.25l3.096 3.096v.019h.019c.99.875 1.546 1.546 1.905 2.537.358.994.518 2.365.518 4.598v3.115c0 3.604 2.935 6.538 6.539 6.538h3.846c3.597 0 4.733.809 6.539 2.559l2.981 2.98c2.547 2.55 6.683 2.55 9.23 0l2.809-2.807c1.158-1.169 1.853-1.833 2.672-2.211.819-.38 1.856-.521 3.751-.521h4.154c3.603 0 6.52-2.934 6.52-6.538v-3.77c0-2.17.266-3.463.789-4.48.521-1.017 1.338-1.823 2.557-2.924l.02-.018 2.173-2.174c2.547-2.548 2.547-6.702 0-9.25l-2.346-2.346-.019-.019-.019-.019c-1.161-1.007-1.916-1.723-2.404-2.712-.487-.988-.75-2.308-.75-4.556v-3.712c0-3.604-2.915-6.539-6.519-6.539h-4.154c-1.871 0-2.976-.247-3.885-.711-.907-.466-1.668-1.198-2.75-2.251h-.019l-2.558-2.577h-.019c-1.275-1.275-2.944-1.904-4.617-1.904zm0 1.211c1.356 0 2.71.518 3.75 1.557l2.577 2.597h.019c1.087 1.058 1.935 1.887 3.057 2.46 1.122.575 2.464.848 4.443.847h4.154c2.937 0 5.289 2.37 5.289 5.307v3.713c0 2.339.258 3.866.864 5.096.604 1.22 1.525 2.062 2.692 3.076.009.008.013.014.019.019l2.333 2.328c2.077 2.076 2.077 5.44 0 7.519l-2.154 2.135c-1.233 1.113-2.187 2.023-2.826 3.27-.64 1.247-.924 2.786-.924 5.057v3.77c0 2.939-2.35 5.308-5.288 5.308h-4.154c-1.955 0-3.184.141-4.25.634-1.067.493-1.873 1.289-3.039 2.463l-2.809 2.807c-2.078 2.078-5.422 2.078-7.499 0l-2.981-3h-.019c-1.878-1.817-3.578-2.904-7.385-2.904h-3.846c-2.938 0-5.307-2.369-5.307-5.308v-3.115c0-2.284-.155-3.793-.596-5.02-.437-1.212-1.176-2.079-2.211-3l-.02-.018-3.077-3.077c-2.078-2.077-2.078-5.441 0-7.52l3.25-3.231v-.019c1.117-1.184 1.807-2.078 2.193-3.154.385-1.076.461-2.262.461-3.981v-3.845c0-2.938 2.369-5.309 5.308-5.309h4.058c3.559 0 5.213-.876 7.212-2.962h.019l2.943-2.941c1.038-1.039 2.393-1.558 3.75-1.558h-.006z" transform="matrix(.965926 -.258819 .258819 .965926 -53.249072 157.954585)"/><path d="m573.266 263.388c-9.829 0-17.808 7.999-17.808 17.828 0 9.828 7.978 17.809 17.808 17.809 9.829 0 17.808-7.979 17.808-17.809 0-9.829-7.979-17.828-17.808-17.828zm0 1.23c9.163 0 16.577 7.433 16.577 16.598 0 9.164-7.414 16.578-16.577 16.578s-16.577-7.414-16.577-16.578 7.413-16.598 16.577-16.598z" transform="matrix(.965926 -.258819 .258819 .965926 -53.247972 157.953747)"/><path d="m573.266 269.387c-6.52 0-11.827 5.308-11.827 11.828 0 6.521 5.306 11.808 11.827 11.808 6.52 0 11.828-5.288 11.828-11.808s-5.306-11.828-11.828-11.828zm0 1.232c5.855 0 10.596 4.741 10.596 10.596s-4.741 10.578-10.596 10.578-10.597-4.723-10.597-10.578 4.742-10.596 10.597-10.596z" transform="matrix(.965926 -.258819 .258819 .965926 -53.247576 157.953821)"/><path d="m552.958 179.074c-.34.016-.603.302-.588.643.015.34.303.604.643.589h.003 84.119c3.344 0 6.04 2.695 6.04 6.038v192.021c0 3.344-2.695 6.041-6.04 6.041h-127.117c-3.344 0-6.04-2.697-6.04-6.041v-150.426c.005-.34-.267-.62-.607-.626-.339-.004-.619.268-.624.608v.018 150.426c0 4.01 3.261 7.271 7.27 7.271h127.116c4.009 0 7.27-3.263 7.27-7.271v-192.021c0-4.009-3.261-7.27-7.27-7.27h-84.118c-.018 0-.037 0-.057 0z" transform="matrix(.965926 -.258819 .258819 .965926 -53.534745 158.073137)"/><path d="m491.011 193.88c-4.009 0-7.27 3.261-7.27 7.27v39.501c-.005.34.267.618.607.624.339.005.619-.267.624-.608 0-.005 0-.011 0-.016v-39.501c0-3.344 2.696-6.038 6.039-6.038h40.309c.339.004.619-.267.624-.608.004-.34-.267-.619-.608-.624-.005 0-.011 0-.016 0z" transform="matrix(.965926 -.258819 .258819 .965926 -39.008905 138.853131)"/></g></svg>

<?xml version="1.0" encoding="utf-8"?>
<svg version="1.2" baseProfile="tiny" id="Layer_3" x="0px" y="0px" preserveAspectRatio="none" xmlns="http://www.w3.org/2000/svg">
  <path id="path3" d="M 481.572 154.263 C 477.747 154.263 474.63 157.38 474.63 161.205 L 474.63 404.806 C 474.63 408.63 477.747 411.729 481.572 411.729 L 665.922 411.729 C 669.746 411.729 672.864 408.63 672.864 404.806 L 672.864 404.191 L 672.864 161.205 C 672.864 157.382 669.749 154.263 665.922 154.263 L 481.572 154.263 L 481.572 154.263 Z M 481.572 155.494 L 665.922 155.494 C 669.081 155.494 671.633 158.046 671.633 161.205 L 671.633 404.806 C 671.633 407.964 669.08 410.499 665.922 410.499 L 481.572 410.499 C 478.414 410.504 475.861 407.968 475.861 404.806 L 475.861 161.205 C 475.861 158.046 478.414 155.494 481.572 155.494 L 481.572 155.494 Z" style="fill: rgb(30, 30, 30);" transform="matrix(0.965926, -0.258819, 0.258819, 0.965926, -53.694794, 158.139498)"/>
  <path id="path5" d="M 488.939 189.56 C 482.54 189.56 477.342 194.759 477.342 201.156 L 477.342 241.465 L 477.342 242.081 L 477.958 242.081 L 530.824 242.081 L 531.439 242.081 L 531.439 241.465 L 531.439 190.176 L 531.439 189.56 L 530.824 189.56 L 488.939 189.56 Z M 488.939 190.791 L 530.208 190.791 L 530.208 240.85 L 478.573 240.85 L 478.573 201.156 C 478.573 195.424 483.206 190.791 488.939 190.791 Z" style="fill: rgb(30, 30, 30);" transform="matrix(0.965926, -0.258819, 0.258819, 0.965926, -38.671766, 137.899754)"/>
  <path id="path7" d="M 552.114 173.92 L 552.114 174.535 L 552.114 227.286 L 497.709 227.286 L 497.093 227.286 L 497.093 227.903 L 497.093 379.192 C 497.093 385.59 502.292 390.787 508.689 390.787 L 638.465 390.787 C 644.864 390.787 650.062 385.59 650.062 379.192 L 650.062 185.513 C 650.062 179.115 644.864 173.917 638.465 173.917 L 552.734 173.917 L 552.119 173.917 L 552.114 173.92 Z M 553.345 175.151 L 638.461 175.151 C 644.195 175.151 648.827 179.783 648.827 185.516 L 648.827 379.195 C 648.827 384.928 644.195 389.562 638.461 389.562 L 508.685 389.562 C 502.953 389.562 498.32 384.928 498.32 379.195 L 498.32 228.521 L 552.725 228.521 L 553.341 228.521 L 553.341 227.905 L 553.341 175.154 L 553.345 175.151 Z" style="fill: rgb(30, 30, 30);" transform="matrix(0.965926, -0.258819, 0.258819, 0.965926, -53.533891, 158.073687)"/>
  <path id="path9" d="M 512.087 230.157 C 507.894 230.159 504.491 233.562 504.491 237.754 L 504.491 328.778 C 504.492 332.97 507.894 336.374 512.087 336.374 L 635.548 336.374 C 639.74 336.374 643.144 332.971 643.145 328.778 L 643.145 237.754 C 643.144 233.562 639.74 230.159 635.548 230.157 L 512.087 230.157 Z M 512.087 231.389 L 635.548 231.388 C 639.069 231.389 641.904 234.235 641.914 237.754 C 641.914 237.761 641.914 237.766 641.914 237.774 L 641.914 328.778 C 641.914 332.306 639.075 335.144 635.548 335.144 L 512.087 335.144 C 508.559 335.144 505.723 332.306 505.722 328.778 L 505.722 237.774 L 505.722 237.754 C 505.732 234.235 508.565 231.389 512.087 231.389 Z M 512.087 232.83 C 509.367 232.836 507.15 235.033 507.145 237.754 L 507.145 328.778 C 507.151 331.498 509.367 333.715 512.087 333.72 L 635.548 333.72 C 638.268 333.715 640.486 331.498 640.492 328.778 L 640.491 237.754 C 640.486 235.033 638.269 232.836 635.548 232.83 L 512.087 232.83 L 512.087 232.83 Z M 512.087 234.061 L 635.548 234.061 C 637.599 234.065 639.246 235.705 639.261 237.754 C 639.261 237.761 639.261 237.766 639.261 237.774 L 639.261 328.778 C 639.255 330.836 637.606 332.487 635.548 332.491 L 512.087 332.491 C 510.03 332.485 508.38 330.836 508.376 328.778 L 508.376 237.774 C 508.376 237.766 508.376 237.76 508.376 237.754 C 508.389 235.705 510.035 234.065 512.087 234.061 Z" style="fill: rgb(30, 30, 30);" transform="matrix(0.965926, -0.258819, 0.258819, 0.965926, -53.762077, 158.166766)"/>
  <path id="path11" d="M 573.264 245.349 C 571.401 245.349 569.545 246.067 568.128 247.484 L 564.801 250.792 C 562.652 253.04 561.453 253.715 557.628 253.715 L 553.051 253.715 C 549.043 253.715 545.782 256.976 545.782 260.984 L 545.782 265.311 C 545.782 267.207 545.686 268.366 545.34 269.331 C 544.995 270.294 544.378 271.142 543.167 272.426 L 539.536 276.057 C 536.701 278.891 536.701 283.512 539.536 286.346 L 543.016 289.827 L 543.036 289.827 L 543.036 289.846 C 544.151 290.832 544.801 291.601 545.209 292.729 C 545.617 293.86 545.786 295.412 545.786 297.922 L 545.786 301.422 C 545.786 305.432 549.048 308.691 553.056 308.691 L 557.382 308.691 C 561.438 308.691 562.751 309.605 564.786 311.576 L 568.133 314.922 C 570.967 317.757 575.567 317.757 578.403 314.922 L 581.556 311.788 C 582.859 310.477 583.659 309.719 584.595 309.287 C 585.53 308.853 586.693 308.691 588.826 308.691 L 593.481 308.691 C 597.49 308.691 600.75 305.43 600.75 301.422 L 600.75 297.172 C 600.75 294.728 601.059 293.253 601.653 292.096 C 602.247 290.938 603.168 290.045 604.538 288.807 L 604.557 288.789 L 606.999 286.346 C 609.834 283.512 609.834 278.891 606.999 276.057 L 604.345 273.402 L 604.326 273.383 C 603.02 272.252 602.151 271.433 601.596 270.306 C 601.038 269.181 600.749 267.685 600.749 265.152 L 600.749 260.98 C 600.749 256.971 597.487 253.712 593.48 253.712 L 588.826 253.712 C 586.716 253.712 585.458 253.433 584.422 252.903 C 583.385 252.373 582.53 251.555 581.307 250.365 L 578.403 247.48 C 576.985 246.064 575.13 245.346 573.268 245.346 L 573.264 245.349 Z M 573.264 246.58 C 574.807 246.58 576.35 247.167 577.532 248.35 L 580.436 251.234 L 580.436 251.253 C 581.659 252.443 582.612 253.365 583.859 254.004 C 585.107 254.641 586.603 254.945 588.821 254.945 L 593.475 254.945 C 596.818 254.945 599.514 257.641 599.514 260.985 L 599.514 265.158 C 599.514 267.784 599.82 269.482 600.496 270.85 C 601.164 272.202 602.169 273.158 603.476 274.292 C 603.488 274.302 603.503 274.302 603.515 274.311 L 606.131 276.927 C 608.495 279.29 608.495 283.119 606.131 285.483 L 603.707 287.887 L 603.688 287.907 C 602.316 289.147 601.26 290.162 600.553 291.541 C 599.842 292.928 599.514 294.629 599.514 297.175 L 599.514 301.425 C 599.514 304.769 596.82 307.465 593.476 307.465 L 588.821 307.465 C 586.627 307.465 585.255 307.627 584.071 308.175 C 582.888 308.724 581.995 309.609 580.687 310.927 L 577.542 314.053 C 575.177 316.418 571.368 316.418 569.003 314.053 L 565.656 310.707 L 565.637 310.707 L 565.637 310.687 C 563.53 308.648 561.652 307.457 557.387 307.457 L 553.06 307.457 C 549.717 307.457 547.022 304.762 547.022 301.417 L 547.022 297.918 C 547.022 295.355 546.859 293.665 546.368 292.302 C 545.879 290.948 545.056 289.973 543.887 288.936 L 543.868 288.917 L 540.406 285.475 C 538.042 283.111 538.042 279.281 540.406 276.918 L 544.061 273.282 L 544.08 273.264 C 545.332 271.937 546.094 270.939 546.522 269.745 C 546.951 268.55 547.023 267.232 547.023 265.301 L 547.023 260.975 C 547.023 257.631 549.717 254.937 553.061 254.937 L 557.638 254.937 C 561.634 254.937 563.452 253.995 565.696 251.648 L 569.003 248.34 C 570.185 247.157 571.728 246.571 573.273 246.571 L 573.264 246.58 Z" style="fill: rgb(30, 30, 30);" transform="matrix(0.965926, -0.258819, 0.258819, 0.965926, -53.24555, 157.954074)"/>
  <path id="path13" d="M 573.268 249.235 C 571.593 249.235 569.925 249.864 568.651 251.138 L 565.69 254.1 C 563.781 256.095 562.739 256.677 559.344 256.677 L 555.286 256.677 C 551.683 256.677 548.747 259.611 548.747 263.216 L 548.747 267.062 C 548.747 268.748 548.666 269.774 548.362 270.62 C 548.059 271.465 547.515 272.211 546.44 273.351 L 543.209 276.582 C 540.661 279.13 540.661 283.284 543.209 285.832 L 546.305 288.928 L 546.305 288.947 L 546.324 288.947 C 547.314 289.822 547.87 290.493 548.229 291.484 C 548.587 292.478 548.747 293.849 548.747 296.082 L 548.747 299.197 C 548.747 302.801 551.682 305.735 555.286 305.735 L 559.132 305.735 C 562.729 305.735 563.865 306.544 565.671 308.294 L 568.652 311.274 C 571.199 313.824 575.335 313.824 577.882 311.274 L 580.691 308.467 C 581.849 307.298 582.544 306.634 583.363 306.256 C 584.182 305.876 585.219 305.735 587.114 305.735 L 591.268 305.735 C 594.871 305.735 597.788 302.801 597.788 299.197 L 597.788 295.427 C 597.788 293.257 598.054 291.964 598.577 290.947 C 599.098 289.93 599.915 289.124 601.134 288.023 L 601.154 288.005 L 603.327 285.831 C 605.874 283.283 605.874 279.129 603.327 276.581 L 600.981 274.235 L 600.962 274.216 L 600.943 274.197 C 599.782 273.19 599.027 272.474 598.539 271.485 C 598.052 270.497 597.789 269.177 597.789 266.929 L 597.789 263.217 C 597.789 259.613 594.874 256.678 591.27 256.678 L 587.116 256.678 C 585.245 256.678 584.14 256.431 583.231 255.967 C 582.324 255.501 581.563 254.769 580.481 253.716 L 580.462 253.716 L 577.904 251.139 L 577.885 251.139 C 576.61 249.864 574.941 249.235 573.268 249.235 L 573.268 249.235 Z M 573.268 250.446 C 574.624 250.446 575.978 250.964 577.018 252.003 L 579.595 254.6 L 579.614 254.6 C 580.701 255.658 581.549 256.487 582.671 257.06 C 583.793 257.635 585.135 257.908 587.114 257.907 L 591.268 257.907 C 594.205 257.907 596.557 260.277 596.557 263.214 L 596.557 266.927 C 596.557 269.266 596.815 270.793 597.421 272.023 C 598.025 273.243 598.946 274.085 600.113 275.099 C 600.122 275.107 600.126 275.113 600.132 275.118 L 602.465 277.446 C 604.542 279.522 604.542 282.886 602.465 284.965 L 600.311 287.1 C 599.078 288.213 598.124 289.123 597.485 290.37 C 596.845 291.617 596.561 293.156 596.561 295.427 L 596.561 299.197 C 596.561 302.136 594.211 304.505 591.273 304.505 L 587.119 304.505 C 585.164 304.505 583.935 304.646 582.869 305.139 C 581.802 305.632 580.996 306.428 579.83 307.602 L 577.021 310.409 C 574.943 312.487 571.599 312.487 569.522 310.409 L 566.541 307.409 L 566.522 307.409 C 564.644 305.592 562.944 304.505 559.137 304.505 L 555.291 304.505 C 552.353 304.505 549.984 302.136 549.984 299.197 L 549.984 296.082 C 549.984 293.798 549.829 292.289 549.388 291.062 C 548.951 289.85 548.212 288.983 547.177 288.062 L 547.157 288.044 L 544.08 284.967 C 542.002 282.89 542.002 279.526 544.08 277.447 L 547.33 274.216 L 547.33 274.197 C 548.447 273.013 549.137 272.119 549.523 271.043 C 549.908 269.967 549.984 268.781 549.984 267.062 L 549.984 263.217 C 549.984 260.279 552.353 257.908 555.292 257.908 L 559.35 257.908 C 562.909 257.908 564.563 257.032 566.562 254.946 L 566.581 254.946 L 569.524 252.005 C 570.562 250.966 571.917 250.447 573.274 250.447 L 573.268 250.447 Z" style="fill: rgb(30, 30, 30);" transform="matrix(0.965926, -0.258819, 0.258819, 0.965926, -53.249072, 157.954585)"/>
  <path id="circle15" d="M 573.266 263.388 C 563.437 263.388 555.458 271.387 555.458 281.216 C 555.458 291.044 563.436 299.025 573.266 299.025 C 583.095 299.025 591.074 291.046 591.074 281.216 C 591.074 271.387 583.095 263.388 573.266 263.388 Z M 573.266 264.618 C 582.429 264.618 589.843 272.051 589.843 281.216 C 589.843 290.38 582.429 297.794 573.266 297.794 C 564.103 297.794 556.689 290.38 556.689 281.216 C 556.689 272.052 564.102 264.618 573.266 264.618 Z" style="fill: rgb(30, 30, 30);" transform="matrix(0.965926, -0.258819, 0.258819, 0.965926, -53.247972, 157.953747)"/>
  <path id="circle17" d="M 573.266 269.387 C 566.746 269.387 561.439 274.695 561.439 281.215 C 561.439 287.736 566.745 293.023 573.266 293.023 C 579.786 293.023 585.094 287.735 585.094 281.215 C 585.094 274.695 579.788 269.387 573.266 269.387 Z M 573.266 270.619 C 579.121 270.619 583.862 275.36 583.862 281.215 C 583.862 287.07 579.121 291.793 573.266 291.793 C 567.411 291.793 562.669 287.07 562.669 281.215 C 562.669 275.36 567.411 270.619 573.266 270.619 Z" style="fill: rgb(30, 30, 30);" transform="matrix(0.965926, -0.258819, 0.258819, 0.965926, -53.247576, 157.953821)"/>
  <path id="path19" d="M 552.958 179.074 C 552.618 179.09 552.355 179.376 552.37 179.717 C 552.385 180.057 552.673 180.321 553.013 180.306 C 553.014 180.306 553.015 180.306 553.016 180.306 L 637.135 180.306 C 640.479 180.306 643.175 183.001 643.175 186.344 L 643.175 378.365 C 643.175 381.709 640.48 384.406 637.135 384.406 L 510.018 384.406 C 506.674 384.406 503.978 381.709 503.978 378.365 L 503.978 227.939 C 503.983 227.599 503.711 227.319 503.371 227.313 C 503.032 227.309 502.752 227.581 502.747 227.921 C 502.747 227.927 502.747 227.933 502.747 227.939 L 502.747 378.365 C 502.747 382.375 506.008 385.636 510.017 385.636 L 637.133 385.636 C 641.142 385.636 644.403 382.373 644.403 378.365 L 644.403 186.344 C 644.403 182.335 641.142 179.074 637.133 179.074 L 553.015 179.074 C 552.997 179.074 552.978 179.074 552.958 179.074 L 552.958 179.074 Z" style="fill: rgb(30, 30, 30);" transform="matrix(0.965926, -0.258819, 0.258819, 0.965926, -53.534745, 158.073137)"/>
  <path id="path21" d="M 491.011 193.88 C 487.002 193.88 483.741 197.141 483.741 201.15 L 483.741 240.651 C 483.736 240.991 484.008 241.269 484.348 241.275 C 484.687 241.28 484.967 241.008 484.972 240.667 C 484.972 240.662 484.972 240.656 484.972 240.651 L 484.972 201.15 C 484.972 197.806 487.668 195.112 491.011 195.112 L 531.32 195.112 C 531.659 195.116 531.939 194.845 531.944 194.504 C 531.948 194.164 531.677 193.885 531.336 193.88 C 531.331 193.88 531.325 193.88 531.32 193.88 L 491.011 193.88 L 491.011 193.88 Z" style="fill: rgb(30, 30, 30);" transform="matrix(0.965926, -0.258819, 0.258819, 0.965926, -39.008905, 138.853131)"/>
</svg>
